src/static/passport.svg

<svg
  width="64"
  height="90"
  viewBox="0 0 64 90"
  fill="none"
  xmlns="http://www.w3.org/2000/svg"
>
  <path
    fill-rule="evenodd"
    clip-rule="evenodd"
    d="M64 14.2C64 8.73842 59.9109 4 54.5 4L46 4L46 8L54.5 8C57.3733 8 60 10.6041 60 14.2L60 79.8C60 83.3959 57.3733 86 54.5 86L9.5 86C6.62667 86 4 83.3959 4 79.8L4 14.2C4 10.6041 6.62667 8 9.5 8L18 8L18 4L9.5 4C4.08906 4 -2.07123e-07 8.73842 -4.45856e-07 14.2L-3.31332e-06 79.8C-3.55206e-06 85.2616 4.08906 90 9.5 90L54.5 90C59.9109 90 64 85.2616 64 79.8L64 14.2Z"
    fill="white"
  />
  <rect
    x="24"
    y="2"
    width="16"
    height="8.122"
    rx="2"
    stroke="white"
    stroke-width="3.6"
  />
  <path
    d="M16 61.3359H48"
    stroke="white"
    stroke-width="4"
    stroke-linecap="round"
    stroke-linejoin="round"
  />
  <path
    d="M24 71.3359H40"
    stroke="white"
    stroke-width="4"
    stroke-linecap="round"
    stroke-linejoin="round"
  />
  <path
    d="M35.2846 38.0851C35.1933 38.1645 35.1344 38.2754 35.1195 38.3962C35.1045 38.5171 35.1346 38.6393 35.2038 38.7389C35.8501 39.6652 36.9274 41.2453 37.9912 42.9617C36.5745 44.2354 34.8269 45.072 32.955 45.3727C34.8672 46.7213 39.7956 50.5354 42.2598 47.2525C44.32 44.4465 38.1662 38.5619 35.7155 37.9761C35.6403 37.9571 35.5617 37.957 35.4865 37.976C35.4114 37.995 35.342 38.0325 35.2846 38.0851Z"
    fill="white"
  />
  <path
    d="M32.0123 40.3735C31.9677 40.2853 31.8984 40.2123 31.813 40.1637C31.7276 40.115 31.6299 40.093 31.5322 40.1003C31.4344 40.1075 31.341 40.1438 31.2635 40.2045C31.1861 40.2652 31.128 40.3477 31.0967 40.4416C30.7735 41.5314 30.2214 43.3703 29.5616 45.2774C27.6893 44.9521 25.9498 44.0865 24.5524 42.7846C24.714 45.1411 24.8352 51.4208 28.9018 51.3391C32.349 51.2165 33.0761 42.6892 32.0123 40.3735Z"
    fill="white"
  />
  <path
    d="M27.838 38.9296C27.8715 38.8595 27.8888 38.7827 27.8888 38.7048C27.8888 38.627 27.8715 38.5502 27.8381 38.4801C27.7805 38.3716 27.6858 38.2882 27.5717 38.2456C27.4576 38.2029 27.332 38.204 27.2186 38.2485C26.1818 38.6844 24.4043 39.3927 22.5191 40.0466C20.9975 37.1996 21.3342 34.5434 21.3342 34.5434C19.6106 36.1235 14.8303 40.1283 17.4157 43.3022C19.6644 45.9448 26.7204 41.2181 27.838 38.9296Z"
    fill="white"
  />
  <path
    d="M26.3703 34.7341C26.4451 34.7177 26.5149 34.6831 26.5736 34.6333C26.6322 34.5834 26.678 34.5199 26.7069 34.4481C26.7551 34.3353 26.7597 34.2084 26.7198 34.0923C26.6799 33.9763 26.5984 33.8796 26.4915 33.8215C25.5219 33.263 23.8791 32.3095 22.1825 31.2197C22.9176 29.4489 24.1427 27.9305 25.7104 26.8471C23.4078 26.4657 17.3348 25.1853 16.5 29.2037C15.8402 32.6364 23.8926 35.2654 26.3703 34.7341Z"
    fill="white"
  />
  <path
    d="M28.6865 30.9609C28.7474 31.0068 28.8178 31.0381 28.8925 31.0523C28.9672 31.0664 29.0441 31.0631 29.1174 31.0426C29.2366 31.0133 29.3404 30.9394 29.4078 30.8358C29.4753 30.7321 29.5014 30.6065 29.4809 30.4841C29.3059 29.3671 29.0231 27.4737 28.8076 25.4577C30.6343 24.9418 32.5686 24.9654 34.3824 25.5258C33.2513 23.4689 30.4639 17.8567 26.8282 19.7093C23.7715 21.3167 26.7339 29.3399 28.6865 30.9609Z"
    fill="white"
  />
  <path
    d="M33.0627 30.4432C33.0609 30.5209 33.0785 30.5978 33.1138 30.6669C33.1491 30.7359 33.201 30.7948 33.2647 30.8383C33.3589 30.9146 33.4784 30.9515 33.5986 30.9414C33.7189 30.9312 33.8307 30.8748 33.9111 30.7838C34.6652 29.9392 35.9578 28.5362 37.3852 27.1195C38.9253 28.2404 40.1129 29.787 40.8055 31.5738C41.6807 29.3944 44.2931 23.6868 40.6035 21.9569C37.4525 20.5402 33.1031 27.896 33.0627 30.4432Z"
    fill="white"
  />
  <path
    d="M35.9983 33.9849C36.0012 34.1094 36.0496 34.2284 36.1341 34.319C36.2187 34.4096 36.3334 34.4652 36.4561 34.4753C37.5603 34.5434 39.4589 34.6932 41.4384 34.9384C41.5331 36.8529 41.0796 38.7543 40.1322 40.4144C42.3675 39.7605 48.4001 38.2758 47.4306 34.2846C46.5688 30.9064 38.1797 32.0234 36.1733 33.5899C36.1136 33.6355 36.0663 33.6956 36.0357 33.7647C36.0051 33.8337 35.9922 33.9095 35.9983 33.9849Z"
    fill="white"
  />
</svg>

<svg xmlns="http://www.w3.org/2000/svg" width="64" height="90" fill="none"><path fill="#fff" fill-rule="evenodd" d="M64 14.2C64 8.738 59.91 4 54.5 4H46v4h8.5c2.873 0 5.5 2.604 5.5 6.2v65.6c0 3.596-2.627 6.2-5.5 6.2h-45C6.627 86 4 83.396 4 79.8V14.2C4 10.604 6.627 8 9.5 8H18V4H9.5C4.09 4 0 8.738 0 14.2v65.6C0 85.262 4.09 90 9.5 90h45c5.41 0 9.5-4.738 9.5-10.2V14.2Z" clip-rule="evenodd"/><rect width="16" height="8.122" x="24" y="2" stroke="#fff" stroke-width="3.6" rx="2"/><path stroke="#fff" stroke-linecap="round" stroke-linejoin="round" stroke-width="4" d="M16 61.336h32M24 71.336h16"/><path fill="#fff" d="M35.285 38.085a.492.492 0 0 0-.081.654 96.6 96.6 0 0 1 2.787 4.223 9.876 9.876 0 0 1-5.036 2.41c1.912 1.35 6.84 5.163 9.305 1.88 2.06-2.806-4.094-8.69-6.544-9.276a.467.467 0 0 0-.431.11ZM32.012 40.373a.502.502 0 0 0-.48-.273.495.495 0 0 0-.435.342 114.72 114.72 0 0 1-1.535 4.835 9.813 9.813 0 0 1-5.01-2.492c.162 2.356.283 8.636 4.35 8.554 3.447-.122 4.174-8.65 3.11-10.965ZM27.838 38.93a.521.521 0 0 0 0-.45.5.5 0 0 0-.62-.231 83.351 83.351 0 0 1-4.699 1.798c-1.521-2.847-1.185-5.504-1.185-5.504-1.723 1.58-6.504 5.585-3.918 8.76 2.248 2.642 9.304-2.085 10.422-4.373ZM26.37 34.734a.47.47 0 0 0 .337-.286.496.496 0 0 0-.216-.627c-.97-.558-2.612-1.511-4.308-2.601a9.948 9.948 0 0 1 3.527-4.373c-2.302-.381-8.375-1.662-9.21 2.357-.66 3.432 7.393 6.061 9.87 5.53ZM28.686 30.96a.496.496 0 0 0 .431.083.495.495 0 0 0 .363-.558c-.174-1.118-.457-3.011-.672-5.027a9.828 9.828 0 0 1 5.574.068c-1.13-2.057-3.918-7.67-7.554-5.817-3.056 1.608-.094 9.63 1.858 11.252ZM33.063 30.443a.468.468 0 0 0 .202.395.468.468 0 0 0 .646-.054 87.966 87.966 0 0 1 3.474-3.665 9.957 9.957 0 0 1 3.42 4.455c.876-2.18 3.488-7.887-.202-9.617-3.15-1.417-7.5 5.939-7.54 8.486ZM35.998 33.985a.507.507 0 0 0 .136.334c.085.09.2.146.322.156 1.104.068 3.003.218 4.982.463a10.05 10.05 0 0 1-1.306 5.476c2.236-.654 8.268-2.138 7.299-6.13-.862-3.378-9.251-2.26-11.258-.694a.448.448 0 0 0-.175.395Z"/></svg>
